icons/tree.svg

<svg id="Layer_5" enable-background="new 0 0 64 64" height="512" viewBox="0 0 64 64" width="512" xmlns="http://www.w3.org/2000/svg"><g><g><g><path d="m61 43v6h-5-5v-3-3z" fill="#fcd770"/></g><g><path d="m61 55v6h-10v-3-3h5z" fill="#fcd770"/></g><g><path d="m41 58v3h-10v-6h5 5z" fill="#fcd770"/></g><g><path d="m41 46v3h-5-5v-3-3h5 5z" fill="#fcd770"/></g><g><path d="m2 62v-8h10v4 4z" fill="#ff826e"/></g><g><path d="m2 50v-8h10v4 4z" fill="#ff826e"/></g><g><path d="m2 38v-8h10v4 4z" fill="#ff826e"/></g><g><path d="m60.89 11.11c-.69-.69-1.63-1.11-2.68-1.11h-22.65l-1.19 10.63c-.21 1.92-1.83 3.37-3.76 3.37h-1.5l.52 4.63c.21 1.92 1.83 3.37 3.76 3.37h1.61v2.59c0 .64.43 1.19 1.02 1.35.12.04.25.06.39.06.38 0 .74-.15 1-.41l3.59-3.59 16-.02c1.75-.18 3.17-1.56 3.37-3.35l1.61-14.42c.01-.14.02-.28.02-.42 0-1.05-.42-1.99-1.11-2.68z" fill="#ccd1d9"/></g><g><path d="m34.89 3.11c-.69-.69-1.63-1.11-2.68-1.11h-26.42c-2.09 0-3.79 1.7-3.79 3.79 0 .14.01.28.02.42l1.61 14.42c.2 1.79 1.62 3.17 3.37 3.35l14 .02 3.59 3.59c.26.26.62.41 1 .41.78 0 1.41-.63 1.41-1.41v-2.59h2.11 1.5c1.93 0 3.55-1.45 3.76-3.37l1.19-10.63.42-3.79c.01-.14.02-.28.02-.42 0-1.05-.42-1.99-1.11-2.68z" fill="#e6e9ed"/></g><g><path d="m21 21v3h-3-10.61c-.13 0-.26-.01-.39-.02v-2.98c0-1.94.78-3.68 2.05-4.95s3.01-2.05 4.95-2.05c3.87 0 7 3.13 7 7z" fill="#fcd770"/></g><g><path d="m57 29v2.98c-.13.01-.26.02-.39.02h-13.61v-3c0-1.94.78-3.68 2.05-4.95s3.01-2.05 4.95-2.05c3.87 0 7 3.13 7 7z" fill="#b4dd7f"/></g><g><circle cx="14" cy="10" fill="#f0d0b4" r="4"/></g><g><circle cx="50" cy="18" fill="#f0d0b4" r="4"/></g></g><g><path d="m23 5h10v2h-10z"/><path d="m23 9h10v2h-10z"/><path d="m27 13h2v2h-2z"/><path d="m31 13h2v2h-2z"/><path d="m23 13h2v2h-2z"/><path d="m38.121 36.293 3.293-3.293h15.193c2.443 0 4.491-1.832 4.762-4.261l1.602-14.418c.019-.176.029-.354.029-.531 0-2.641-2.148-4.79-4.79-4.79h-21.537l.298-2.68c.019-.175.029-.353.029-.53 0-2.641-2.148-4.79-4.79-4.79h-26.42c-2.642 0-4.79 2.149-4.79 4.79 0 .177.01.354.029.529l1.602 14.42c.27 2.429 2.318 4.261 4.762 4.261h9.607v8h-4v-4h-12v10h12v-4h4v10h-4v-4h-12v10h12v-4h4v10h-4v-4h-12v10h12v-4h6v-12h11v3h5v4h-5v8h12v-3h8v3h12v-8h-5v-4h5v-8h-12v3h-8v-3h-5v-5.082c.42-.107.813-.316 1.121-.625zm-27.121.707h-8v-6h8zm0 12h-8v-6h8zm0 12h-8v-6h8zm36-43c0-1.654 1.346-3 3-3s3 1.346 3 3-1.346 3-3 3-3-1.346-3-3zm9 13h-12v-2c0-3.309 2.691-6 6-6s6 2.691 6 6zm-19.549-20h21.759c1.538 0 2.79 1.251 2.79 2.79 0 .102-.006.205-.018.308l-1.602 14.419c-.101.912-.635 1.674-1.381 2.104v-1.621c0-3.232-1.93-6.016-4.695-7.277 1.032-.917 1.696-2.238 1.696-3.723 0-2.757-2.243-5-5-5s-5 2.243-5 5c0 1.485.664 2.806 1.695 3.723-2.765 1.261-4.695 4.045-4.695 7.277v2h-1.414l-3.879 3.879c-.238.239-.707.045-.707-.293v-3.586h-2.607c-1.424 0-2.616-1.067-2.773-2.482l-.391-3.518h.379c2.443 0 4.491-1.832 4.762-4.261zm-31.832 9.518-1.601-14.421c-.012-.102-.018-.205-.018-.307 0-1.539 1.252-2.79 2.79-2.79h26.42c1.538 0 2.79 1.251 2.79 2.79 0 .102-.006.205-.018.308l-1.602 14.419c-.156 1.416-1.349 2.483-2.773 2.483h-4.607v3.586c0 .338-.47.531-.707.293l-3.293-3.293v-2.586c0-3.232-1.93-6.016-4.695-7.277 1.031-.917 1.695-2.238 1.695-3.723 0-2.757-2.243-5-5-5s-5 2.243-5 5c0 1.485.664 2.806 1.695 3.723-2.765 1.261-4.695 4.045-4.695 7.277v1.622c-.746-.43-1.28-1.193-1.381-2.104zm6.381-10.518c0-1.654 1.346-3 3-3s3 1.346 3 3-1.346 3-3 3-3-1.346-3-3zm9 13h-12v-2c0-3.309 2.691-6 6-6s6 2.691 6 6zm20 37h-8v-4h8zm20 0h-8v-4h8zm-8-16h8v4h-8zm-2 3v3h5v4h-5v3h-8v-3h-5v-4h5v-3zm-10 1h-8v-4h8zm-10-6v3h-11v-20h1.586l3.292 3.292c.449.45 1.071.708 1.708.708 1.331 0 2.414-1.083 2.414-2.414v-1.586h.216l.415 3.739c.27 2.429 2.318 4.261 4.762 4.261h.607v1.586c0 .802.397 1.508 1 1.947v5.467z"/><path d="m5 57h4v2h-4z"/><path d="m5 45h4v2h-4z"/><path d="m5 33h4v2h-4z"/></g></g></svg>

<?xml version="1.0" encoding="UTF-8" standalone="no"?>
<svg
   xmlns:dc="http://purl.org/dc/elements/1.1/"
   xmlns:cc="http://creativecommons.org/ns#"
   xmlns:rdf="http://www.w3.org/1999/02/22-rdf-syntax-ns#"
   xmlns:svg="http://www.w3.org/2000/svg"
   xmlns="http://www.w3.org/2000/svg"
   xmlns:sodipodi="http://sodipodi.sourceforge.net/DTD/sodipodi-0.dtd"
   xmlns:inkscape="http://www.inkscape.org/namespaces/inkscape"
   inkscape:version="1.0 (4035a4fb49, 2020-05-01)"
   sodipodi:docname="tree.svg"
   version="1.1"
   width="24"
   viewBox="0 0 3 3"
   height="24"
   enable-background="new 0 0 64 64"
   id="Layer_5">
  <metadata
     id="metadata83">
    <rdf:RDF>
      <cc:Work
         rdf:about="">
        <dc:format>image/svg+xml</dc:format>
        <dc:type
           rdf:resource="http://purl.org/dc/dcmitype/StillImage" />
        <dc:title></dc:title>
      </cc:Work>
    </rdf:RDF>
  </metadata>
  <defs
     id="defs81" />
  <sodipodi:namedview
     inkscape:current-layer="Layer_5"
     inkscape:window-maximized="1"
     inkscape:window-y="0"
     inkscape:window-x="0"
     inkscape:cy="43.233433"
     inkscape:cx="-33.267834"
     inkscape:zoom="5.5684659"
     showgrid="false"
     id="namedview79"
     inkscape:window-height="1417"
     inkscape:window-width="2560"
     inkscape:pageshadow="2"
     inkscape:pageopacity="0"
     guidetolerance="10"
     gridtolerance="10"
     objecttolerance="10"
     borderopacity="1"
     bordercolor="#666666"
     pagecolor="#ffffff" />
  <g
     transform="matrix(0.0483871,0,0,0.0483871,-0.0483871,-0.0483871)"
     id="g76">
    <g
       id="g54">
      <g
         id="g4">
        <path
           id="path2"
           fill="#fcd770"
           d="m 61,43 v 6 h -5 -5 v -3 -3 z" />
      </g>
      <g
         id="g8">
        <path
           id="path6"
           fill="#fcd770"
           d="m 61,55 v 6 H 51 v -3 -3 h 5 z" />
      </g>
      <g
         id="g12">
        <path
           id="path10"
           fill="#fcd770"
           d="m 41,58 v 3 H 31 v -6 h 5 5 z" />
      </g>
      <g
         id="g16">
        <path
           id="path14"
           fill="#fcd770"
           d="m 41,46 v 3 h -5 -5 v -3 -3 h 5 5 z" />
      </g>
      <g
         id="g20">
        <path
           id="path18"
           fill="#ff826e"
           d="m 2,62 v -8 h 10 v 4 4 z" />
      </g>
      <g
         id="g24">
        <path
           id="path22"
           fill="#ff826e"
           d="m 2,50 v -8 h 10 v 4 4 z" />
      </g>
      <g
         id="g28">
        <path
           id="path26"
           fill="#ff826e"
           d="m 2,38 v -8 h 10 v 4 4 z" />
      </g>
      <g
         id="g32">
        <path
           id="path30"
           fill="#ccd1d9"
           d="M 60.89,11.11 C 60.2,10.42 59.26,10 58.21,10 H 35.56 L 34.37,20.63 C 34.16,22.55 32.54,24 30.61,24 h -1.5 l 0.52,4.63 C 29.84,30.55 31.46,32 33.39,32 H 35 v 2.59 c 0,0.64 0.43,1.19 1.02,1.35 0.12,0.04 0.25,0.06 0.39,0.06 0.38,0 0.74,-0.15 1,-0.41 L 41,32 57,31.98 c 1.75,-0.18 3.17,-1.56 3.37,-3.35 L 61.98,14.21 C 61.99,14.07 62,13.93 62,13.79 62,12.74 61.58,11.8 60.89,11.11 Z" />
      </g>
      <g
         id="g36">
        <path
           id="path34"
           fill="#e6e9ed"
           d="M 34.89,3.11 C 34.2,2.42 33.26,2 32.21,2 H 5.79 C 3.7,2 2,3.7 2,5.79 2,5.93 2.01,6.07 2.02,6.21 l 1.61,14.42 c 0.2,1.79 1.62,3.17 3.37,3.35 l 14,0.02 3.59,3.59 c 0.26,0.26 0.62,0.41 1,0.41 C 26.37,28 27,27.37 27,26.59 V 24 h 2.11 1.5 c 1.93,0 3.55,-1.45 3.76,-3.37 L 35.56,10 35.98,6.21 C 35.99,6.07 36,5.93 36,5.79 36,4.74 35.58,3.8 34.89,3.11 Z" />
      </g>
      <g
         id="g40">
        <path
           id="path38"
           fill="#fcd770"
           d="m 21,21 v 3 H 18 7.39 C 7.26,24 7.13,23.99 7,23.98 V 21 C 7,19.06 7.78,17.32 9.05,16.05 10.32,14.78 12.06,14 14,14 c 3.87,0 7,3.13 7,7 z" />
      </g>
      <g
         id="g44">
        <path
           id="path42"
           fill="#b4dd7f"
           d="m 57,29 v 2.98 C 56.87,31.99 56.74,32 56.61,32 H 43 v -3 c 0,-1.94 0.78,-3.68 2.05,-4.95 C 46.32,22.78 48.06,22 50,22 c 3.87,0 7,3.13 7,7 z" />
      </g>
      <g
         id="g48">
        <circle
           id="circle46"
           r="4"
           fill="#f0d0b4"
           cy="10"
           cx="14" />
      </g>
      <g
         id="g52">
        <circle
           id="circle50"
           r="4"
           fill="#f0d0b4"
           cy="18"
           cx="50" />
      </g>
    </g>
    <g
       id="g74">
      <path
         id="path56"
         d="M 23,5 H 33 V 7 H 23 Z" />
      <path
         id="path58"
         d="m 23,9 h 10 v 2 H 23 Z" />
      <path
         id="path60"
         d="m 27,13 h 2 v 2 h -2 z" />
      <path
         id="path62"
         d="m 31,13 h 2 v 2 h -2 z" />
      <path
         id="path64"
         d="m 23,13 h 2 v 2 h -2 z" />
      <path
         id="path66"
         d="M 38.121,36.293 41.414,33 h 15.193 c 2.443,0 4.491,-1.832 4.762,-4.261 L 62.971,14.321 C 62.99,14.145 63,13.967 63,13.79 63,11.149 60.852,9 58.21,9 H 36.673 L 36.971,6.32 C 36.99,6.145 37,5.967 37,5.79 37,3.149 34.852,1 32.21,1 H 5.79 C 3.148,1 1,3.149 1,5.79 1,5.967 1.01,6.144 1.029,6.319 l 1.602,14.42 C 2.901,23.168 4.949,25 7.393,25 H 17 v 8 H 13 V 29 H 1 v 10 h 12 v -4 h 4 V 45 H 13 V 41 H 1 v 10 h 12 v -4 h 4 V 57 H 13 V 53 H 1 v 10 h 12 v -4 h 6 V 47 h 11 v 3 h 5 v 4 h -5 v 8 h 12 v -3 h 8 v 3 h 12 v -8 h -5 v -4 h 5 V 42 H 50 v 3 h -8 v -3 h -5 v -5.082 c 0.42,-0.107 0.813,-0.316 1.121,-0.625 z M 11,37 H 3 v -6 h 8 z m 0,12 H 3 v -6 h 8 z m 0,12 H 3 v -6 h 8 z M 47,18 c 0,-1.654 1.346,-3 3,-3 1.654,0 3,1.346 3,3 0,1.654 -1.346,3 -3,3 -1.654,0 -3,-1.346 -3,-3 z m 9,13 H 44 v -2 c 0,-3.309 2.691,-6 6,-6 3.309,0 6,2.691 6,6 z M 36.451,11 H 58.21 c 1.538,0 2.79,1.251 2.79,2.79 0,0.102 -0.006,0.205 -0.018,0.308 L 59.38,28.517 c -0.101,0.912 -0.635,1.674 -1.381,2.104 V 29 c 0,-3.232 -1.93,-6.016 -4.695,-7.277 C 54.336,20.806 55,19.485 55,18 c 0,-2.757 -2.243,-5 -5,-5 -2.757,0 -5,2.243 -5,5 0,1.485 0.664,2.806 1.695,3.723 C 43.93,22.984 42,25.768 42,29 v 2 h -1.414 l -3.879,3.879 C 36.469,35.118 36,34.924 36,34.586 V 31 H 33.393 C 31.969,31 30.777,29.933 30.62,28.518 L 30.229,25 h 0.379 c 2.443,0 4.491,-1.832 4.762,-4.261 z M 4.619,20.518 3.018,6.097 C 3.006,5.995 3,5.892 3,5.79 3,4.251 4.252,3 5.79,3 H 32.21 C 33.748,3 35,4.251 35,5.79 35,5.892 34.994,5.995 34.982,6.098 L 33.38,20.517 C 33.224,21.933 32.031,23 30.607,23 H 26 v 3.586 c 0,0.338 -0.47,0.531 -0.707,0.293 L 22,23.586 V 21 C 22,17.768 20.07,14.984 17.305,13.723 18.336,12.806 19,11.485 19,10 19,7.243 16.757,5 14,5 11.243,5 9,7.243 9,10 9,11.485 9.664,12.806 10.695,13.723 7.93,14.984 6,17.768 6,21 v 1.622 C 5.254,22.192 4.72,21.429 4.619,20.518 Z M 11,10 c 0,-1.654 1.346,-3 3,-3 1.654,0 3,1.346 3,3 0,1.654 -1.346,3 -3,3 -1.654,0 -3,-1.346 -3,-3 z m 9,13 H 8 v -2 c 0,-3.309 2.691,-6 6,-6 3.309,0 6,2.691 6,6 z m 20,37 h -8 v -4 h 8 z m 20,0 h -8 v -4 h 8 z M 52,44 h 8 v 4 h -8 z m -2,3 v 3 h 5 v 4 h -5 v 3 h -8 v -3 h -5 v -4 h 5 v -3 z m -10,1 h -8 v -4 h 8 z M 30,42 v 3 H 19 V 25 h 1.586 l 3.292,3.292 C 24.327,28.742 24.949,29 25.586,29 26.917,29 28,27.917 28,26.586 V 25 h 0.216 l 0.415,3.739 C 28.901,31.168 30.949,33 33.393,33 H 34 v 1.586 c 0,0.802 0.397,1.508 1,1.947 V 42 Z" />
      <path
         id="path68"
         d="m 5,57 h 4 v 2 H 5 Z" />
      <path
         id="path70"
         d="m 5,45 h 4 v 2 H 5 Z" />
      <path
         id="path72"
         d="m 5,33 h 4 v 2 H 5 Z" />
    </g>
  </g>
</svg>
